X:1
T:Sailing, 87.87 D
T:Sailing, 87.87 D
T:Philip Paul Bliss, 1871
T:Public Domain Courtesy of the Cyber Hymnal™
C:Philip Paul Bliss, 1871
Z:Public Domain
Z:Courtesy of the Cyber Hymnal™
%%score ( 1 2 ) ( 3 4 )
L:1/8
Q:1/4=95
M:3/4
K:C
V:1 treble 
V:2 treble 
V:3 bass 
V:4 bass 
V:1
 G>G | [Ec]3 [FA] [EG]>[DF] | [CE] [EG]3 C>C | [CA]3 [CA] [Ac]>[Ac] | [GB]4 [FA]>[FB] | %5
 [Ec]3 [Ec] [Ge]>[Ec] | [Fc] [FA]3 [FA]>[FA] | [EG]3 [EG] [FB]>[Fd] | [Ec]4 [Gd]>[Gd] | %9
 [Gd]3 [Gd] [Gd]>[Ec] | [Ge] [Ec]3 [Ec]>[GB] | [FA]3 [Fc] [^Fd]>[Fe] | [Gd]4 G>G | %13
 [Gc]3 [Gc] [Ge]>[Ec] | [Fc] [FA]3 [FA]>[FA] | [EG]3 [EG] [FB]>[Fd] | [Ec]4 |] %17
V:2
 G>G | x6 | x4 C>C | x6 | x6 | x6 | x6 | x6 | x6 | x6 | x6 | x6 | x6 | x6 | x6 | x6 | x4 |] %17
V:3
 G,>G, | [C,G,]3 [C,C] [C,C]>[C,C] | [C,G,] [C,C]3 [C,C]>[C,C] | [F,C]3 [F,C] [F,C]>[F,C] | %4
 G,4 [G,D]>[G,D] | [C,C]3 [C,C] [C,C]>[C,G,] | [F,A,] [F,C]3 [F,C]>[F,C] | %7
 [G,C]3 [G,C] [G,D]>[G,B,] | [C,C]4 [G,B,]>[G,B,] | [G,B,]3 [G,B,] [G,B,]>[G,C] | %10
 [C,C] [C,G,]3 [C,C]>[E,C] | [F,C]3 [F,A,] [D,A,]>[D,C] | [G,B,]4 G,>G, | %13
 [C,E]3 [C,E] [C,C]>[C,G,] | [F,A,] [F,C]3 [F,C]>[F,C] | [G,D]3 [G,D] [G,D]>[G,B,] | [C,C]4 |] %17
V:4
 x2 | x6 | x6 | x6 | G,4 x2 | x6 | x6 | x6 | x6 | x6 | x6 | x6 | x6 | x6 | x6 | x6 | x4 |] %17

